public/logos/gitea.svg

<svg width="20" height="20" viewBox="0 0 20 20" fill="none" xmlns="http://www.w3.org/2000/svg">
  <rect width="20" height="20" rx="4" fill="white" />
  <path
    d="M16.2106 6.14174C16.1193 6.05042 16.0051 6.05803 16.0051 6.05803C16.0051 6.05803 13.4918 6.19692 12.1942 6.22736C11.9108 6.23307 11.6273 6.23877 11.3476 6.23877V8.75208C11.2258 8.6969 11.1117 8.63792 10.9918 8.58275C10.9918 7.80269 10.9918 6.24448 10.9918 6.24448C10.3697 6.25019 9.08352 6.19692 9.08352 6.19692C9.08352 6.19692 6.05082 6.04661 5.72548 6.01617C5.51429 6.00476 5.24222 5.97432 4.89215 6.04661C4.7057 6.08276 4.17298 6.20453 3.73919 6.62119C2.77268 7.47925 3.02001 8.85101 3.05046 9.05649C3.0866 9.30382 3.19505 10.004 3.72777 10.609C4.7057 11.8114 6.82136 11.781 6.82136 11.781C6.82136 11.781 7.08201 12.4031 7.47965 12.9701C8.01808 13.6759 8.56793 14.2334 9.09874 14.3C10.4458 14.3 13.1455 14.3 13.1455 14.3C13.1455 14.3 13.4062 14.3 13.7505 14.0774C14.0531 13.8966 14.3175 13.5751 14.3175 13.5751C14.3175 13.5751 14.5953 13.2783 14.9815 12.6029C15.1033 12.3974 15.1984 12.1919 15.284 12.0055C15.284 12.0055 16.4674 9.49789 16.4674 7.05117C16.4332 6.31678 16.2524 6.1836 16.2106 6.14174ZM5.55995 10.5139C5.0044 10.3331 4.76848 10.1143 4.76848 10.1143C4.76848 10.1143 4.35753 9.82513 4.15205 9.26197C3.80197 8.30687 4.12161 7.7342 4.12161 7.7342C4.12161 7.7342 4.30235 7.25094 4.94923 7.09303C5.24603 7.01502 5.61323 7.02644 5.61323 7.02644C5.61323 7.02644 5.76353 8.30117 5.95188 9.04317C6.1098 9.67102 6.4827 10.7098 6.4827 10.7098C6.4827 10.7098 5.92144 10.6413 5.55995 10.5139ZM11.9926 12.816C11.9926 12.816 11.8594 13.1242 11.5702 13.1489C11.4427 13.1546 11.3476 13.1242 11.3476 13.1242C11.3476 13.1242 11.3419 13.1242 11.2334 13.0823L8.81716 11.9046C8.81716 11.9046 8.58124 11.7829 8.5451 11.5717C8.49753 11.3967 8.60598 11.1855 8.60598 11.1855L9.77226 8.78632C9.77226 8.78632 9.875 8.58084 10.0329 8.50855C10.0443 8.50284 10.0805 8.48381 10.1299 8.4781C10.305 8.43625 10.5162 8.53899 10.5162 8.53899L12.8906 9.68624C12.8906 9.68624 13.1626 9.80801 13.2159 10.0306C13.2578 10.1885 13.2045 10.3331 13.1798 10.3997C13.039 10.725 11.9926 12.816 11.9926 12.816Z"
    fill="#73A952" />
  <path
    d="M9.8731 11.077C9.69806 11.077 9.54015 11.2045 9.504 11.3738C9.46214 11.5432 9.54586 11.7239 9.69806 11.8019C9.86168 11.8856 10.0729 11.8381 10.187 11.6877C10.2955 11.5374 10.2783 11.3244 10.1509 11.1931L10.6646 10.1429C10.695 10.1429 10.7426 10.1486 10.7978 10.1314C10.8891 10.1124 10.9481 10.0534 10.9481 10.0534C11.0394 10.0896 11.1345 10.1314 11.2315 10.1866C11.3343 10.2418 11.4313 10.2894 11.5207 10.3445C11.5398 10.3559 11.5569 10.3693 11.5816 10.3864C11.6178 10.4168 11.6539 10.453 11.6844 10.5082C11.7262 10.6299 11.6425 10.8278 11.6425 10.8278C11.5949 10.9914 11.2506 11.6973 11.2506 11.6973C11.0755 11.6916 10.9252 11.8057 10.8701 11.9636C10.8149 12.1387 10.8948 12.3327 11.0641 12.4221C11.2334 12.5116 11.4389 12.4583 11.5474 12.308C11.6558 12.1634 11.6444 11.9579 11.5226 11.8247C11.5645 11.7467 11.6006 11.6668 11.6444 11.5831C11.7528 11.3605 11.9336 10.9305 11.9336 10.9305C11.9526 10.8944 12.0554 10.7079 11.9945 10.472C11.9393 10.2304 11.7224 10.1162 11.7224 10.1162C11.4618 9.94689 11.0946 9.79088 11.0946 9.79088C11.0946 9.79088 11.0946 9.69956 11.0698 9.64058C11.0451 9.57399 11.0089 9.53213 10.9861 9.5074C11.0888 9.30192 11.1859 9.09644 11.2886 8.88526C11.1973 8.8434 11.1136 8.80154 11.028 8.75208C10.9252 8.96326 10.8225 9.17445 10.7197 9.38563C10.5752 9.38563 10.442 9.45793 10.3754 9.5854C10.3031 9.71858 10.3145 9.88791 10.4172 10.0078L9.8731 11.077Z"
    fill="#73A952" />
</svg>

<svg xmlns="http://www.w3.org/2000/svg" fill="none" viewBox="0 0 20 20">
  <rect width="20" height="20" fill="#fff" rx="4" />
  <path fill="#73A952"
    d="M16.21 6.142c-.09-.092-.205-.084-.205-.084s-2.513.139-3.81.17c-.284.005-.568.01-.847.01v2.514c-.122-.055-.236-.114-.356-.17V6.245c-.622.006-1.908-.047-1.908-.047s-3.033-.15-3.359-.18c-.21-.012-.483-.043-.833.03-.186.036-.719.158-1.153.574-.966.858-.719 2.23-.689 2.435.037.248.145.948.678 1.553.978 1.202 3.093 1.172 3.093 1.172s.261.622.659 1.19c.538.705 1.088 1.262 1.619 1.329h4.046s.261 0 .606-.223c.302-.18.567-.502.567-.502s.277-.297.664-.972a6.31 6.31 0 0 0 .302-.598s1.183-2.507 1.183-4.954c-.034-.734-.215-.867-.256-.91ZM5.56 10.514c-.556-.18-.792-.4-.792-.4s-.41-.289-.616-.852c-.35-.955-.03-1.528-.03-1.528s.18-.483.827-.641c.297-.078.664-.067.664-.067s.15 1.275.339 2.017c.158.628.53 1.667.53 1.667s-.56-.069-.922-.196Zm6.433 2.302s-.134.308-.423.333c-.127.006-.222-.025-.222-.025s-.006 0-.115-.042l-2.416-1.177s-.236-.122-.272-.333c-.047-.175.061-.386.061-.386l1.166-2.4s.103-.205.26-.277c.012-.006.049-.025.098-.03.175-.043.386.06.386.06l2.375 1.147s.272.122.325.345a.607.607 0 0 1-.036.369c-.141.325-1.187 2.416-1.187 2.416Z" />
  <path fill="#73A952"
    d="M9.873 11.077a.383.383 0 0 0-.369.297c-.042.17.042.35.194.428a.396.396 0 0 0 .489-.114.39.39 0 0 0-.036-.495l.514-1.05c.03 0 .078.006.133-.012.091-.019.15-.078.15-.078.091.037.186.078.284.134.102.055.2.102.289.158.019.01.036.024.06.041.037.03.073.067.103.122.042.122-.041.32-.041.32-.048.163-.392.87-.392.87a.392.392 0 0 0-.38.266.389.389 0 0 0 .193.458c.17.09.375.036.483-.114a.382.382 0 0 0-.024-.483c.042-.078.078-.158.121-.242.109-.223.29-.652.29-.652.019-.037.121-.223.06-.459-.055-.242-.272-.356-.272-.356-.26-.17-.627-.325-.627-.325s0-.091-.025-.15a.391.391 0 0 0-.084-.134c.103-.205.2-.41.303-.622a3.051 3.051 0 0 1-.261-.133l-.308.634a.382.382 0 0 0-.303.622l-.544 1.069Z" />
</svg>
